X: 3379
T: DUNCAN GRAY
%R: march
B: James Kerr "Merry Melodies" v.3 p.42 #379
Z: 2016 John Chambers <jc:trillian.mit.edu>
M: 2/4
L: 1/8
K: D
|:\
Adcd | efc2 | d2e>g | fdd2 |\
Adcd | (e/f/)g/e/ c2 | d2e>g | fddz ::\
fa ag/f/ | ggg2 | gfed | cBA2 |\
a>fg>e | fde2 | d2e>g | fddz :|

%%sep 1 1 500
%%sep 1 1 500

